X:1
T:Title
%%score 1 2 3
L:1/8
Q:1/4=120
M:4/4
K:C
V:1 treble nm="Grand Piano"
V:2 bass nm="Grand Piano, Melody"
V:3 bass nm="Grand Piano"
V:1
 c2 c2 A2 c2 | d2 c2 c4 | d2 d2 d2 f2 | c2 c2 c4 | d2 c2 A2 A2 | c2 c2 f3 c | d2 f2 c2 c2 | %7
 c4 c2 z2 | f2 f2 c2 c2 | A2 c2 c4 | f4 fcdc | c4 c2 z2 | c2 cd c2 f2 | f2 c2 A2 c2 | f3 d c2 c2 | %15
 c4 c2 z2 |] %16
V:2
 F,2 A,2 C2 C2 | A,2 C2 F,4 | G,2 G,A, G,2 F,G, | A,2 A,2 G,4 | A,2[K:treble] C2 C2 C2 | %5
 A,2 C2[K:bass] F,3 G, | A,2 A,2 G,2 G,2 | F,4 F,2 z2 | F,2 A,2[K:treble] C2 E2 | D2 C2 A,4 | %10
 C4 A,G,A,C | F4 F2 z2 | F2 FD C2 CD | A,2 F,2 F,D, F,2 | A,3 F, G,2 G,2 | F,4 F,2 z2 |] %16
V:3
 F,2 F,2 C,2 C,2 | D,2 C,2 F,4 | G,2 G,A, G,2 A,G, | F,2 F,2 C,4 | F,2 F,2 C,2 C,2 | %5
 F,2 G,2 A,3 G, | F,2 F,2 C,2 C,2 | F,4 F,2 z2 | F,2 D,2 C,2 C,2 | F,2 G,2 A,4 | F,4 F,G,A,G, | %11
 F,4 F,2 z2 | F,2 F,F, F,2 F,2 | D,2 F,2 A,2 A,2 | F,3 F, C,2 C,2 | F,4 F,2 z2 |] %16

